packages/core/src/svgs/ichi.svg

<svg width="24" height="24" viewBox="0 0 24 24" fill="none" xmlns="http://www.w3.org/2000/svg">
<g clip-path="url(#clip0_31_11689)">
<path d="M0 0H24V24H0V0Z" fill="#0065E3"/>
<path d="M18.7456 6.71581C18.9471 7.01581 18.8656 7.41867 18.5656 7.61581C18.0814 7.93724 17.1385 8.39581 15.8571 8.74724V11.5715H16.5685C16.9328 11.5715 17.2285 11.8587 17.2285 12.2144C17.2285 12.5701 16.9328 12.8572 16.5685 12.8572H15.8571V15.253C17.1428 15.6044 18.0856 16.0672 18.5656 16.3801C18.8656 16.5815 18.9514 16.9844 18.7456 17.2801C18.5399 17.5801 18.1285 17.6615 17.8242 17.4601C17.1556 17.0187 14.9314 16.0244 11.9142 16.0244C8.89707 16.0244 6.79707 17.0187 6.19278 17.4472C5.89707 17.6615 5.48135 17.593 5.26707 17.3015C5.21617 17.2324 5.17963 17.1538 5.1596 17.0704C5.13957 16.9869 5.13645 16.9003 5.15043 16.8156C5.16441 16.7309 5.19521 16.6499 5.241 16.5773C5.2868 16.5047 5.34666 16.442 5.41707 16.393C5.8885 16.0587 6.83135 15.5787 8.14278 15.2187V12.8572H7.60278C7.2385 12.8572 6.94278 12.5701 6.94278 12.2144C6.94278 11.8587 7.24278 11.5715 7.60278 11.5715H8.14278V8.78152C7.17648 8.54067 6.25586 8.14405 5.41707 7.60724C5.34666 7.55816 5.2868 7.49547 5.241 7.42288C5.19521 7.3503 5.16441 7.26927 5.15043 7.18459C5.13645 7.09991 5.13957 7.01329 5.1596 6.92983C5.17963 6.84638 5.21617 6.76778 5.26707 6.69867C5.48135 6.40724 5.89707 6.34295 6.19278 6.55295C7.04866 7.08154 7.99203 7.45308 8.9785 7.6501C9.81421 7.84295 10.8042 7.97581 11.9142 7.97581C14.9314 7.97581 17.1556 6.98152 17.8285 6.5401C18.1285 6.33867 18.5399 6.4201 18.7456 6.71581ZM14.5714 14.9615V12.8572H9.4285V14.9358C11.1309 14.6407 12.872 14.6494 14.5714 14.9615ZM14.5714 11.5715V9.04295C12.8711 9.34586 11.1313 9.35311 9.4285 9.06438V11.5715H14.5714Z" fill="white"/>
</g>
<defs>
<clipPath id="clip0_31_11689">
<rect width="24" height="24" fill="white"/>
</clipPath>
</defs>
</svg>

<svg xmlns="http://www.w3.org/2000/svg" width="24" height="24" fill="none" viewBox="0 0 24 24"><g clip-path="url(#a)"><path fill="#0065E3" d="M0 0h24v24H0z"/><path fill="#fff" d="M18.746 6.716c.201.3.12.703-.18.9-.485.321-1.427.78-2.709 1.131v2.825h.712c.364 0 .66.287.66.642a.65.65 0 0 1-.66.643h-.712v2.396c1.286.351 2.229.814 2.709 1.127.3.201.385.604.18.9a.67.67 0 0 1-.922.18c-.668-.441-2.893-1.436-5.91-1.436s-5.117.995-5.721 1.423a.667.667 0 0 1-1.033-.377.64.64 0 0 1 .257-.677c.471-.334 1.414-.814 2.726-1.174v-2.362h-.54a.65.65 0 0 1-.66-.643c0-.355.3-.643.66-.643h.54v-2.79a9.2 9.2 0 0 1-2.726-1.174.643.643 0 0 1-.15-.908.67.67 0 0 1 .926-.146c.856.529 1.799.9 2.786 1.097.835.193 1.825.326 2.935.326 3.017 0 5.242-.994 5.914-1.436a.67.67 0 0 1 .918.176m-4.175 8.246v-2.105H9.43v2.079a14.6 14.6 0 0 1 5.142.025m0-3.39V9.043c-1.7.303-3.44.31-5.142.021v2.508z"/></g><defs><clipPath id="a"><path fill="#fff" d="M0 0h24v24H0z"/></clipPath></defs></svg>
